icons/omw.svg

<svg xmlns="http://www.w3.org/2000/svg" viewBox="0 0 48 48"><defs><style>.a{fill:#fff;}.b{fill:none;stroke:#fff;stroke-linecap:round;stroke-linejoin:round;}</style></defs><circle class="a" cx="36.7" cy="13.8" r="0.9"/><circle class="a" cx="40.3" cy="13.8" r="0.9"/><path class="b" d="M6.7,8.9H41.3a2.12,2.12,0,0,1,2.2,2V34.8a2.12,2.12,0,0,1-2.2,2H6.7a2.12,2.12,0,0,1-2.2-2V10.9A2.12,2.12,0,0,1,6.7,8.9Z"/><path class="b" d="M10.3,39.1H14l.9-2.3H9.4Z"/><path class="b" d="M34,39.1h3.7l.9-2.3H33Z"/><path class="b" d="M36.8,29.8h3.5a.27.27,0,0,1,.3.3v2.7a.27.27,0,0,1-.3.3H36.8a.27.27,0,0,1-.3-.3V30.1A.27.27,0,0,1,36.8,29.8Z"/><circle class="a" cx="36.7" cy="17.4" r="0.9"/><circle class="a" cx="36.7" cy="21.1" r="0.9"/><circle class="a" cx="36.7" cy="24.7" r="0.9"/><circle class="a" cx="40.3" cy="17.4" r="0.9"/><circle class="a" cx="40.3" cy="21" r="0.9"/><circle class="a" cx="40.3" cy="24.6" r="0.9"/><path class="b" d="M8.5,12.8H34.1a.27.27,0,0,1,.3.3V32.4a.27.27,0,0,1-.3.3H8.5a.27.27,0,0,1-.3-.3V13.2C8.2,13,8.3,12.8,8.5,12.8Z"/><path class="b" d="M31.4,12.8V17l-2,2.8v6.3l2,2.3v4.5"/></svg>

<?xml version="1.0" encoding="utf-8"?>
<!-- Generator: Adobe Illustrator 25.1.0, SVG Export Plug-In . SVG Version: 6.00 Build 0)  -->
<svg version="1.1" id="Layer_1" xmlns="http://www.w3.org/2000/svg" xmlns:xlink="http://www.w3.org/1999/xlink" x="0px" y="0px"
	 viewBox="0 0 48 48" style="enable-background:new 0 0 48 48;" xml:space="preserve">
<style type="text/css">
	.st0{fill:#FFFFFF;}
	.st1{fill:none;stroke:#FFFFFF;stroke-linecap:round;stroke-linejoin:round;}
</style>
<g>
	<circle class="st0" cx="36.7" cy="13.8" r="0.9"/>
	<circle class="st0" cx="40.3" cy="13.8" r="0.9"/>
	<g>
		<path class="st1" d="M6.7,8.9h34.6c1.2,0,2.2,0.9,2.2,2v23.9c0,1.1-1,2-2.2,2H6.7c-1.2,0-2.2-0.9-2.2-2V10.9
			C4.5,9.8,5.5,8.9,6.7,8.9z"/>
		<path class="st1" d="M10.3,39.1h3.7l0.9-2.3H9.4L10.3,39.1z"/>
		<path class="st1" d="M34,39.1h3.7l0.9-2.3h-5.6L34,39.1z"/>
		<path class="st1" d="M36.8,29.8h3.5c0.2,0,0.3,0.1,0.3,0.3v2.7c0,0.2-0.1,0.3-0.3,0.3h-3.5c-0.2,0-0.3-0.1-0.3-0.3v-2.7
			C36.5,29.9,36.6,29.8,36.8,29.8z"/>
		<circle class="st0" cx="36.7" cy="17.4" r="0.9"/>
		<circle class="st0" cx="36.7" cy="21.1" r="0.9"/>
		<circle class="st0" cx="36.7" cy="24.7" r="0.9"/>
		<circle class="st0" cx="40.3" cy="17.4" r="0.9"/>
		<circle class="st0" cx="40.3" cy="21" r="0.9"/>
		<circle class="st0" cx="40.3" cy="24.6" r="0.9"/>
		<path class="st1" d="M8.5,12.8h25.6c0.2,0,0.3,0.1,0.3,0.3v19.3c0,0.2-0.1,0.3-0.3,0.3H8.5c-0.2,0-0.3-0.1-0.3-0.3V13.2
			C8.2,13,8.3,12.8,8.5,12.8z"/>
		<path class="st1" d="M31.4,12.8V17l-2,2.8v6.3l2,2.3v4.5"/>
	</g>
</g>
</svg>
